.design/optimized/2.svg

<?xml version="1.0" encoding="UTF-8"?>
<svg width="100px" height="100px" viewBox="0 0 100 100" version="1.1" xmlns="http://www.w3.org/2000/svg" xmlns:xlink="http://www.w3.org/1999/xlink">
    <!-- Generator: Sketch 50.2 (55047) - http://www.bohemiancoding.com/sketch -->
    <title>2</title>
    <desc>Created with Sketch.</desc>
    <defs></defs>
    <g id="2" stroke="none" stroke-width="1" fill="none" fill-rule="evenodd" stroke-linecap="round">
        <path d="M0,40 L65,40 C72,40 82,50 90,50 L105,50 C108.333333,50 113.333333,46.6666667 120,40 L160,0" id="line--3" stroke="#FFFFFF" stroke-width="3"></path>
        <path d="M0,50 L105,50" id="line--2" stroke="#FFFFFF" stroke-width="3"></path>
        <path d="M0,60 L65,60 C72,60 82,50 90,50 L105,50 C108.333333,50 113.333333,53.3333333 120,60 L160,100" id="line--1" stroke="#FFFFFF" stroke-width="3"></path>
    </g>
</svg>

<svg viewBox="0 0 100 100" xmlns="http://www.w3.org/2000/svg">
  <path class="line--1" d="M0 40h65c7 0 17 10 25 10h15c3.3 0 8.3-3.3 15-10l40-40"/>
  <path class="line--2" d="M0 50h105"/>
  <path class="line--3" d="M0 60h65c7 0 17-10 25-10h15c3.3 0 8.3 3.3 15 10l40 40"/>
</svg>
